public/files/perm/themes/base/flux/img/book_color.svg

<svg width="24" height="24" viewBox="0 0 24 24" fill="none" xmlns="http://www.w3.org/2000/svg">
<path d="M17.505 3.67749C15.555 3.67749 13.455 4.07749 12.005 5.17749C10.555 4.07749 8.455 3.67749 6.505 3.67749C5.055 3.67749 3.515 3.89749 2.225 4.46749C1.495 4.79749 1.005 5.50749 1.005 6.31749V17.5975C1.005 18.8975 2.225 19.8575 3.485 19.5375C4.465 19.2875 5.505 19.1775 6.505 19.1775C8.065 19.1775 9.72501 19.4375 11.065 20.0975C11.665 20.3975 12.345 20.3975 12.935 20.0975C14.275 19.4275 15.935 19.1775 17.495 19.1775C18.495 19.1775 19.535 19.2875 20.515 19.5375C21.775 19.8675 22.995 18.9075 22.995 17.5975V6.31749C22.995 5.50749 22.505 4.79749 21.775 4.46749C20.495 3.89749 18.955 3.67749 17.505 3.67749ZM21.005 16.4075C21.005 17.0375 20.425 17.4975 19.805 17.3875C19.055 17.2475 18.275 17.1875 17.505 17.1875C15.805 17.1875 13.355 17.8375 12.005 18.6875V7.17749C13.355 6.32749 15.805 5.67749 17.505 5.67749C18.425 5.67749 19.335 5.76749 20.205 5.95749C20.665 6.05749 21.005 6.46749 21.005 6.93749V16.4075Z" fill="#282573"/>
<path d="M13.985 10.1875C13.665 10.1875 13.375 9.98749 13.275 9.66749C13.145 9.27749 13.365 8.84749 13.755 8.72749C15.295 8.22749 17.285 8.06749 19.115 8.27749C19.525 8.32749 19.825 8.69749 19.775 9.10749C19.725 9.51749 19.355 9.81749 18.945 9.76749C17.325 9.57749 15.555 9.72749 14.215 10.1575C14.135 10.1675 14.055 10.1875 13.985 10.1875Z" fill="#282573"/>
<path d="M13.985 12.8475C13.665 12.8475 13.375 12.6475 13.275 12.3275C13.145 11.9375 13.365 11.5075 13.755 11.3875C15.285 10.8875 17.285 10.7275 19.115 10.9375C19.525 10.9875 19.825 11.3575 19.775 11.7675C19.725 12.1775 19.355 12.4775 18.945 12.4275C17.325 12.2375 15.555 12.3875 14.215 12.8175C14.135 12.8375 14.055 12.8475 13.985 12.8475Z" fill="#282573"/>
<path d="M13.985 15.5075C13.665 15.5075 13.375 15.3075 13.275 14.9875C13.145 14.5975 13.365 14.1675 13.755 14.0475C15.285 13.5475 17.285 13.3875 19.115 13.5975C19.525 13.6475 19.825 14.0175 19.775 14.4275C19.725 14.8375 19.355 15.1275 18.945 15.0875C17.325 14.8975 15.555 15.0475 14.215 15.4775C14.135 15.4975 14.055 15.5075 13.985 15.5075Z" fill="#282573"/>
</svg>

<svg fill="none" height="24" viewBox="0 0 24 24" width="24" xmlns="http://www.w3.org/2000/svg"><g fill="#282573"><path d="m17.505 3.67749c-1.95 0-4.05.4-5.5 1.5-1.45-1.1-3.55-1.5-5.5-1.5-1.45 0-2.99.22-4.28.79-.73.33-1.22 1.04-1.22 1.85v11.28001c0 1.3 1.22 2.26 2.48 1.94.98-.25 2.02-.36 3.02-.36 1.56 0 3.22001.26 4.56.92.6.3 1.28.3 1.87 0 1.34-.67 3-.92 4.56-.92 1 0 2.04.11 3.02.36 1.26.33 2.48-.63 2.48-1.94v-11.28001c0-.81-.49-1.52-1.22-1.85-1.28-.57-2.82-.79-4.27-.79zm3.5 12.73001c0 .63-.58 1.09-1.2.98-.75-.14-1.53-.2-2.3-.2-1.7 0-4.15.65-5.5 1.5v-11.51001c1.35-.85 3.8-1.5 5.5-1.5.92 0 1.83.09 2.7.28.46.1.8.51.8.98z"/><path d="m13.985 10.1875c-.32 0-.61-.20001-.71-.52001-.13-.39.09-.82.48-.94 1.54-.5 3.53-.66 5.36-.45.41.05.71.42.66.83s-.42.71-.83.66c-1.62-.19-3.39-.04-4.73.39001-.08.01-.16.03-.23.03z"/><path d="m13.985 12.8475c-.32 0-.61-.2-.71-.52-.13-.39.09-.82.48-.94 1.53-.5 3.53-.66 5.36-.45.41.05.71.42.66.83s-.42.71-.83.66c-1.62-.19-3.39-.04-4.73.39-.08.02-.16.03-.23.03z"/><path d="m13.985 15.5075c-.32 0-.61-.2-.71-.52-.13-.39.09-.82.48-.94 1.53-.5 3.53-.66 5.36-.45.41.05.71.42.66.83s-.42.7-.83.66c-1.62-.19-3.39-.04-4.73.39-.08.02-.16.03-.23.03z"/></g></svg>
